X:547
T:Man On the Moon
C:Donald MacLeod
S:Niall Anderson, Glasgow
Z:Nigel Gatherer
M:4/4
L:1/8
K:Amix
e | A2 cA ce a2 | eAca BGGB | A2 cA ce af | ecBc AA A :|
e | agfe  fg a2 | agfe aece | agfe  fg af | ecBc AA A
e | agfe  fg a2 | agfe aece | fgaf  ecaf  | ecBc AA A |]
